src/root/static/images/chemfiles.svg

<?xml version="1.0" encoding="UTF-8" standalone="no"?>
<svg
   xmlns:dc="http://purl.org/dc/elements/1.1/"
   xmlns:cc="http://creativecommons.org/ns#"
   xmlns:rdf="http://www.w3.org/1999/02/22-rdf-syntax-ns#"
   xmlns:svg="http://www.w3.org/2000/svg"
   xmlns="http://www.w3.org/2000/svg"
   xmlns:sodipodi="http://sodipodi.sourceforge.net/DTD/sodipodi-0.dtd"
   xmlns:inkscape="http://www.inkscape.org/namespaces/inkscape"
   width="100%"
   height="100%"
   viewBox="0 0 600 600"
   version="1.1"
   xml:space="preserve"
   style="fill-rule:evenodd;clip-rule:evenodd;stroke-linecap:round;stroke-linejoin:round;stroke-miterlimit:1.5;"
   id="svg69"
   sodipodi:docname="chemfiles.svg"
   inkscape:version="0.92.3 (2405546, 2018-03-11)"><metadata
   id="metadata75"><rdf:RDF><cc:Work
       rdf:about=""><dc:format>image/svg+xml</dc:format><dc:type
         rdf:resource="http://purl.org/dc/dcmitype/StillImage" /></cc:Work></rdf:RDF></metadata><defs
   id="defs73">
        
        
        
        
        
    
            
            
            
            
            
        </defs><sodipodi:namedview
   pagecolor="#ffffff"
   bordercolor="#666666"
   borderopacity="1"
   objecttolerance="10"
   gridtolerance="10"
   guidetolerance="10"
   inkscape:pageopacity="0"
   inkscape:pageshadow="2"
   inkscape:window-width="1920"
   inkscape:window-height="1016"
   id="namedview71"
   showgrid="false"
   inkscape:zoom="1.1125147"
   inkscape:cx="543.90081"
   inkscape:cy="269.79927"
   inkscape:window-x="0"
   inkscape:window-y="27"
   inkscape:window-maximized="1"
   inkscape:current-layer="svg69" />
    <g
   id="g4"
   transform="matrix(3.9755615,0.70099639,-0.65503802,3.7148946,92.660139,-58.935018)">
            <path
   inkscape:connector-curvature="0"
   id="path2"
   style="fill:#4086b2;fill-rule:nonzero"
   d="M 124.126,44.748 88.131,11.495 H 23.156 v 142.459 h 100.97 z" />
        </g><g
   id="g8"
   transform="matrix(4.0215282,0.35183778,-0.32876901,3.7578488,20.025498,-51.343599)">
            <path
   inkscape:connector-curvature="0"
   id="path6"
   style="fill:#94bed8;fill-rule:nonzero"
   d="M 124.126,44.748 88.131,11.495 H 23.156 v 142.459 h 100.97 z" />
        </g><g
   id="g12"
   transform="matrix(4.0368907,0,0,3.772203,-50.297225,-43.361468)">
            <path
   inkscape:connector-curvature="0"
   id="path10"
   style="fill:#e2edf4;fill-rule:nonzero"
   d="M 124.126,44.748 88.131,11.495 H 23.156 v 142.459 h 100.97 z" />
        </g><g
   id="g44"
   transform="matrix(4.0368907,0,0,4.0368907,-50.297225,-84.110876)">
            <g
   id="g18">
                <path
   inkscape:connector-curvature="0"
   id="path14"
   style="fill:#4086b2;fill-rule:nonzero"
   d="M 29.989,124.283 H 77.871" />
                <path
   inkscape:connector-curvature="0"
   id="path16"
   style="fill:#1470b8"
   d="m 78.039,122.792 0.166,0.028 0.161,0.047 0.156,0.064 0.147,0.082 0.137,0.097 0.125,0.112 0.113,0.125 0.097,0.138 0.081,0.147 0.065,0.155 0.046,0.162 0.028,0.166 0.01,0.168 -0.01,0.168 -0.028,0.165 -0.046,0.162 -0.065,0.155 -0.081,0.148 -0.097,0.137 -0.113,0.125 -0.125,0.112 -0.137,0.098 -0.147,0.081 -0.156,0.064 -0.161,0.047 -0.166,0.028 -0.168,0.01 H 29.989 l -0.168,-0.01 -0.166,-0.028 -0.162,-0.047 -0.155,-0.064 -0.147,-0.081 -0.137,-0.098 -0.126,-0.112 -0.112,-0.125 -0.097,-0.137 -0.082,-0.148 -0.064,-0.155 -0.047,-0.162 -0.028,-0.165 -0.009,-0.168 0.009,-0.168 0.028,-0.166 0.047,-0.162 0.064,-0.155 0.082,-0.147 0.097,-0.138 0.112,-0.125 0.126,-0.112 0.137,-0.097 0.147,-0.082 0.155,-0.064 0.162,-0.047 0.166,-0.028 0.168,-0.009 h 47.882 z" />
            </g>
            <g
   id="g24">
                <path
   inkscape:connector-curvature="0"
   id="path20"
   style="fill:#4086b2;fill-rule:nonzero"
   d="M 29.989,109.347 H 77.871" />
                <path
   inkscape:connector-curvature="0"
   id="path22"
   style="fill:#1470b8"
   d="m 78.039,107.856 0.166,0.029 0.161,0.046 0.156,0.065 0.147,0.081 0.137,0.097 0.125,0.112 0.113,0.126 0.097,0.137 0.081,0.147 0.065,0.156 0.046,0.161 0.028,0.166 0.01,0.168 -0.01,0.168 -0.028,0.166 -0.046,0.161 -0.065,0.156 -0.081,0.147 -0.097,0.137 -0.113,0.126 -0.125,0.112 -0.137,0.097 -0.147,0.081 -0.156,0.065 -0.161,0.046 -0.166,0.029 -0.168,0.009 H 29.989 l -0.168,-0.009 -0.166,-0.029 -0.162,-0.046 -0.155,-0.065 -0.147,-0.081 -0.137,-0.097 -0.126,-0.112 -0.112,-0.126 -0.097,-0.137 -0.082,-0.147 -0.064,-0.156 -0.047,-0.161 -0.028,-0.166 -0.009,-0.168 0.009,-0.168 0.028,-0.166 0.047,-0.161 0.064,-0.156 0.082,-0.147 0.097,-0.137 0.112,-0.126 0.126,-0.112 0.137,-0.097 0.147,-0.081 0.155,-0.065 0.162,-0.046 0.166,-0.029 0.168,-0.009 h 47.882 z" />
            </g>
            <g
   id="g30">
                <path
   inkscape:connector-curvature="0"
   id="path26"
   style="fill:#4086b2;fill-rule:nonzero"
   d="M 29.988,77.109 H 77.871" />
                <path
   inkscape:connector-curvature="0"
   id="path28"
   style="fill:#1470b8"
   d="m 78.039,75.618 0.166,0.028 0.162,0.047 0.155,0.064 0.147,0.082 0.138,0.097 0.125,0.112 0.112,0.125 0.097,0.138 0.082,0.147 0.064,0.155 0.047,0.162 0.028,0.166 0.009,0.168 -0.009,0.168 -0.028,0.165 -0.047,0.162 -0.064,0.156 -0.082,0.147 -0.097,0.137 -0.112,0.125 -0.125,0.112 -0.138,0.098 -0.147,0.081 -0.155,0.065 -0.162,0.046 -0.166,0.028 -0.168,0.01 H 29.988 L 29.82,78.599 29.655,78.571 29.493,78.525 29.337,78.46 29.19,78.379 29.053,78.281 28.928,78.169 28.816,78.044 28.718,77.907 28.637,77.76 l -0.065,-0.156 -0.046,-0.162 -0.028,-0.165 -0.01,-0.168 0.01,-0.168 0.028,-0.166 0.046,-0.162 0.065,-0.155 0.081,-0.147 0.098,-0.138 0.112,-0.125 0.125,-0.112 0.137,-0.097 0.147,-0.082 0.156,-0.064 0.162,-0.047 0.165,-0.028 0.168,-0.009 h 47.883 z" />
            </g>
            <g
   id="g36">
                <path
   inkscape:connector-curvature="0"
   id="path32"
   style="fill:#4086b2;fill-rule:nonzero"
   d="M 30.089,92.512 77.974,92.511" />
                <path
   inkscape:connector-curvature="0"
   id="path34"
   style="fill:#1470b8"
   d="m 78.142,91.021 0.166,0.028 0.162,0.046 0.155,0.065 0.147,0.081 0.138,0.097 0.125,0.112 0.112,0.126 0.097,0.137 0.082,0.147 0.064,0.156 0.047,0.161 0.028,0.166 0.009,0.168 -0.009,0.168 -0.028,0.166 -0.047,0.161 -0.064,0.156 -0.081,0.147 -0.098,0.137 -0.112,0.126 -0.125,0.112 -0.138,0.097 -0.147,0.082 -0.155,0.064 -0.162,0.046 -0.166,0.029 -0.168,0.009 -47.885,0.001 -0.168,-0.009 -0.165,-0.028 -0.162,-0.047 -0.155,-0.064 -0.148,-0.082 -0.137,-0.097 -0.125,-0.112 -0.112,-0.126 -0.098,-0.137 -0.081,-0.147 -0.064,-0.155 -0.047,-0.162 -0.028,-0.166 -0.01,-0.168 0.01,-0.168 0.028,-0.166 0.047,-0.161 0.064,-0.156 0.081,-0.147 0.098,-0.137 0.112,-0.126 0.125,-0.112 0.137,-0.097 0.148,-0.081 0.155,-0.065 0.162,-0.046 0.165,-0.028 0.168,-0.01 47.885,-0.001 z" />
            </g>
            <g
   id="g42">
                <path
   inkscape:connector-curvature="0"
   id="path38"
   style="fill:#4086b2;fill-rule:nonzero"
   d="m 29.988,140.099 47.884,-0.002" />
                <path
   inkscape:connector-curvature="0"
   id="path40"
   style="fill:#1470b8"
   d="m 78.04,138.606 0.166,0.029 0.161,0.046 0.156,0.065 0.147,0.081 0.137,0.097 0.125,0.112 0.113,0.126 0.097,0.137 0.081,0.147 0.065,0.156 0.046,0.161 0.028,0.166 0.01,0.168 -0.01,0.168 -0.028,0.166 -0.046,0.161 -0.065,0.156 -0.081,0.147 -0.097,0.137 -0.112,0.126 -0.126,0.112 -0.137,0.097 -0.147,0.081 -0.156,0.065 -0.161,0.046 -0.166,0.029 -0.168,0.009 -47.884,0.002 -0.168,-0.009 -0.166,-0.029 -0.162,-0.046 -0.155,-0.065 -0.147,-0.081 -0.137,-0.097 -0.126,-0.112 -0.112,-0.126 -0.097,-0.137 -0.082,-0.147 -0.064,-0.156 -0.047,-0.161 -0.028,-0.166 -0.009,-0.168 0.009,-0.168 0.028,-0.166 0.047,-0.161 0.064,-0.156 0.082,-0.147 0.097,-0.137 0.112,-0.126 0.126,-0.112 0.137,-0.097 0.147,-0.081 0.155,-0.065 0.162,-0.046 0.166,-0.029 0.168,-0.009 47.884,-0.002 z" />
            </g>
        </g><g
   transform="matrix(4.0368907,0,0,4.0368907,54.072951,148.76483)"
   id="g48">
                <g
   aria-label="H"
   style="font-weight:700;font-size:44.23099899px;font-family:Optima-Bold, Optima;fill:#1d1d1b"
   id="text46"><path
     d="m 4.0602675,-32.244571 h 8.3149095 v 12.288788 h 12.267191 v -12.288788 h 8.31491 V 0 h -8.31491 V -13.671007 H 12.375177 V 0 H 4.0602675 Z"
     style="font-weight:700;font-size:44.23099899px;font-family:Optima-Bold, Optima;fill:#1d1d1b"
     id="path928" /></g>
            </g><g
   transform="matrix(4.0368907,0,0,4.0368907,291.82426,248.46367)"
   id="g52">
                <g
   aria-label="O"
   style="font-weight:700;font-size:44.23099899px;font-family:Optima-Bold, Optima;fill:#f30202"
   id="text50"><path
     d="m 18.789536,-26.802085 q -3.801102,0 -5.896027,2.807632 -2.094925,2.807632 -2.094925,7.904563 0,5.075335 2.094925,7.8829664 2.094925,2.8076317 5.896027,2.8076317 3.822698,0 5.917624,-2.8076317 2.094925,-2.8076314 2.094925,-7.8829664 0,-5.096931 -2.094925,-7.904563 -2.094926,-2.807632 -5.917624,-2.807632 z m 0,-6.02561 q 7.77498,0 12.180802,4.449017 4.405822,4.449016 4.405822,12.288788 0,7.8181749 -4.405822,12.2671914 -4.405822,4.44901646 -12.180802,4.44901646 -7.753383,0 -12.1808028,-4.44901646 -4.4058221,-4.4490165 -4.4058221,-12.2671914 0,-7.839772 4.4058221,-12.288788 4.4274198,-4.449017 12.1808028,-4.449017 z"
     style="font-weight:700;font-size:44.23099899px;font-family:Optima-Bold, Optima;fill:#f30202"
     id="path931"
     inkscape:connector-curvature="0" /></g>
            </g><g
   transform="matrix(4.0368907,0,0,4.0368907,290.3126,519.82008)"
   id="g56">
                <g
   aria-label="H"
   style="font-weight:700;font-size:44.23099899px;font-family:Optima-Bold, Optima;fill:#1d1d1b"
   id="text54"><path
     d="m 4.0602675,-32.244571 h 8.3149095 v 12.288788 h 12.267191 v -12.288788 h 8.31491 V 0 h -8.31491 V -13.671007 H 12.375177 V 0 H 4.0602675 Z"
     style="font-weight:700;font-size:44.23099899px;font-family:Optima-Bold, Optima;fill:#1d1d1b"
     id="path925" /></g>
            </g>
<rect
   style="fill:#000000;fill-opacity:1;stroke-width:0.81695765"
   id="rect992"
   width="26.366819"
   height="96.53212"
   x="353.92795"
   y="270.88666"
   ry="13.18341" /><rect
   style="clip-rule:evenodd;fill:#000000;fill-opacity:1;fill-rule:evenodd;stroke-width:0.81695765;stroke-linecap:round;stroke-linejoin:round;stroke-miterlimit:1.5"
   id="rect992-8"
   width="26.366819"
   height="96.53212"
   x="22.093565"
   y="217.70259"
   ry="13.18341"
   transform="rotate(-60)" /></svg>

<?xml version="1.0" encoding="UTF-8" standalone="no"?>
<!DOCTYPE svg PUBLIC "-//W3C//DTD SVG 1.1//EN" "http://www.w3.org/Graphics/SVG/1.1/DTD/svg11.dtd">
<svg width="100%" height="100%" viewBox="0 0 600 600" version="1.1" xmlns="http://www.w3.org/2000/svg" xmlns:xlink="http://www.w3.org/1999/xlink" xml:space="preserve" style="fill-rule:evenodd;clip-rule:evenodd;stroke-linecap:round;stroke-linejoin:round;stroke-miterlimit:1.5;">
    <g id="Layer-1" transform="matrix(4.16667,0,0,4.16667,-60.5604,-62.5229)">
        <g transform="matrix(0.954134,0.168239,-0.157209,0.891574,36.7729,0.861091)">
            <path d="M124.126,44.748L88.131,11.495L23.156,11.495L23.156,153.954L124.126,153.954L124.126,44.748Z" style="fill:rgb(64,134,178);fill-rule:nonzero;"/>
        </g>
        <g transform="matrix(0.965166,0.084441,-0.0789045,0.901883,19.3406,2.68303)">
            <path d="M124.126,44.748L88.131,11.495L23.156,11.495L23.156,153.954L124.126,153.954L124.126,44.748Z" style="fill:rgb(148,190,216);fill-rule:nonzero;"/>
        </g>
        <g transform="matrix(0.968853,0,0,0.905328,2.46316,4.59874)">
            <path d="M124.126,44.748L88.131,11.495L23.156,11.495L23.156,153.954L124.126,153.954L124.126,44.748Z" style="fill:rgb(226,237,244);fill-rule:nonzero;"/>
        </g>
        <g transform="matrix(0.968853,0,0,0.968853,2.46316,-5.18111)">
            <g>
                <path d="M29.989,124.283L77.871,124.283" style="fill:rgb(64,134,178);fill-rule:nonzero;"/>
                <path d="M78.039,122.792L78.205,122.82L78.366,122.867L78.522,122.931L78.669,123.013L78.806,123.11L78.931,123.222L79.044,123.347L79.141,123.485L79.222,123.632L79.287,123.787L79.333,123.949L79.361,124.115L79.371,124.283L79.361,124.451L79.333,124.616L79.287,124.778L79.222,124.933L79.141,125.081L79.044,125.218L78.931,125.343L78.806,125.455L78.669,125.553L78.522,125.634L78.366,125.698L78.205,125.745L78.039,125.773L77.871,125.783L29.989,125.783L29.821,125.773L29.655,125.745L29.493,125.698L29.338,125.634L29.191,125.553L29.054,125.455L28.928,125.343L28.816,125.218L28.719,125.081L28.637,124.933L28.573,124.778L28.526,124.616L28.498,124.451L28.489,124.283L28.498,124.115L28.526,123.949L28.573,123.787L28.637,123.632L28.719,123.485L28.816,123.347L28.928,123.222L29.054,123.11L29.191,123.013L29.338,122.931L29.493,122.867L29.655,122.82L29.821,122.792L29.989,122.783L77.871,122.783L78.039,122.792Z" style="fill:rgb(20,112,184);"/>
            </g>
            <g>
                <path d="M29.989,109.347L77.871,109.347" style="fill:rgb(64,134,178);fill-rule:nonzero;"/>
                <path d="M78.039,107.856L78.205,107.885L78.366,107.931L78.522,107.996L78.669,108.077L78.806,108.174L78.931,108.286L79.044,108.412L79.141,108.549L79.222,108.696L79.287,108.852L79.333,109.013L79.361,109.179L79.371,109.347L79.361,109.515L79.333,109.681L79.287,109.842L79.222,109.998L79.141,110.145L79.044,110.282L78.931,110.408L78.806,110.52L78.669,110.617L78.522,110.698L78.366,110.763L78.205,110.809L78.039,110.838L77.871,110.847L29.989,110.847L29.821,110.838L29.655,110.809L29.493,110.763L29.338,110.698L29.191,110.617L29.054,110.52L28.928,110.408L28.816,110.282L28.719,110.145L28.637,109.998L28.573,109.842L28.526,109.681L28.498,109.515L28.489,109.347L28.498,109.179L28.526,109.013L28.573,108.852L28.637,108.696L28.719,108.549L28.816,108.412L28.928,108.286L29.054,108.174L29.191,108.077L29.338,107.996L29.493,107.931L29.655,107.885L29.821,107.856L29.989,107.847L77.871,107.847L78.039,107.856Z" style="fill:rgb(20,112,184);"/>
            </g>
            <g>
                <path d="M29.988,77.109L77.871,77.109" style="fill:rgb(64,134,178);fill-rule:nonzero;"/>
                <path d="M78.039,75.618L78.205,75.646L78.367,75.693L78.522,75.757L78.669,75.839L78.807,75.936L78.932,76.048L79.044,76.173L79.141,76.311L79.223,76.458L79.287,76.613L79.334,76.775L79.362,76.941L79.371,77.109L79.362,77.277L79.334,77.442L79.287,77.604L79.223,77.76L79.141,77.907L79.044,78.044L78.932,78.169L78.807,78.281L78.669,78.379L78.522,78.46L78.367,78.525L78.205,78.571L78.039,78.599L77.871,78.609L29.988,78.609L29.82,78.599L29.655,78.571L29.493,78.525L29.337,78.46L29.19,78.379L29.053,78.281L28.928,78.169L28.816,78.044L28.718,77.907L28.637,77.76L28.572,77.604L28.526,77.442L28.498,77.277L28.488,77.109L28.498,76.941L28.526,76.775L28.572,76.613L28.637,76.458L28.718,76.311L28.816,76.173L28.928,76.048L29.053,75.936L29.19,75.839L29.337,75.757L29.493,75.693L29.655,75.646L29.82,75.618L29.988,75.609L77.871,75.609L78.039,75.618Z" style="fill:rgb(20,112,184);"/>
            </g>
            <g>
                <path d="M30.089,92.512L77.974,92.511" style="fill:rgb(64,134,178);fill-rule:nonzero;"/>
                <path d="M78.142,91.021L78.308,91.049L78.47,91.095L78.625,91.16L78.772,91.241L78.91,91.338L79.035,91.45L79.147,91.576L79.244,91.713L79.326,91.86L79.39,92.016L79.437,92.177L79.465,92.343L79.474,92.511L79.465,92.679L79.437,92.845L79.39,93.006L79.326,93.162L79.245,93.309L79.147,93.446L79.035,93.572L78.91,93.684L78.772,93.781L78.625,93.863L78.47,93.927L78.308,93.973L78.142,94.002L77.974,94.011L30.089,94.012L29.921,94.003L29.756,93.975L29.594,93.928L29.439,93.864L29.291,93.782L29.154,93.685L29.029,93.573L28.917,93.447L28.819,93.31L28.738,93.163L28.674,93.008L28.627,92.846L28.599,92.68L28.589,92.512L28.599,92.344L28.627,92.178L28.674,92.017L28.738,91.861L28.819,91.714L28.917,91.577L29.029,91.451L29.154,91.339L29.291,91.242L29.439,91.161L29.594,91.096L29.756,91.05L29.921,91.022L30.089,91.012L77.974,91.011L78.142,91.021Z" style="fill:rgb(20,112,184);"/>
            </g>
            <g>
                <path d="M29.988,140.099L77.872,140.097" style="fill:rgb(64,134,178);fill-rule:nonzero;"/>
                <path d="M78.04,138.606L78.206,138.635L78.367,138.681L78.523,138.746L78.67,138.827L78.807,138.924L78.932,139.036L79.045,139.162L79.142,139.299L79.223,139.446L79.288,139.602L79.334,139.763L79.362,139.929L79.372,140.097L79.362,140.265L79.334,140.431L79.288,140.592L79.223,140.748L79.142,140.895L79.045,141.032L78.933,141.158L78.807,141.27L78.67,141.367L78.523,141.448L78.367,141.513L78.206,141.559L78.04,141.588L77.872,141.597L29.988,141.599L29.82,141.59L29.654,141.561L29.492,141.515L29.337,141.45L29.19,141.369L29.053,141.272L28.927,141.16L28.815,141.034L28.718,140.897L28.636,140.75L28.572,140.594L28.525,140.433L28.497,140.267L28.488,140.099L28.497,139.931L28.525,139.765L28.572,139.604L28.636,139.448L28.718,139.301L28.815,139.164L28.927,139.038L29.053,138.926L29.19,138.829L29.337,138.748L29.492,138.683L29.654,138.637L29.82,138.608L29.988,138.599L77.872,138.597L78.04,138.606Z" style="fill:rgb(20,112,184);"/>
            </g>
        </g>
        <g transform="matrix(0.968853,0,0,0.968853,2.46316,-5.18111)">
            <g transform="matrix(1,0,0,1,25.8541,57.6869)">
                <text x="0px" y="0px" style="font-family:'Optima-Bold', 'Optima';font-weight:700;font-size:44.231px;fill:rgb(29,29,27);">H</text>
            </g>
            <g transform="matrix(1,0,0,1,83.1743,83.9583)">
                <text x="0px" y="0px" style="font-family:'Optima-Bold', 'Optima';font-weight:700;font-size:44.231px;fill:rgb(243,2,2);">O</text>
            </g>
            <g transform="matrix(1,0,0,1,84.3743,149.603)">
                <text x="0px" y="0px" style="font-family:'Optima-Bold', 'Optima';font-weight:700;font-size:44.231px;fill:rgb(29,29,27);">H</text>
            </g>
            <g transform="matrix(0.24,0,0,0.24,-22.401,74.9917)">
                <path d="M517.192,66.514L517.192,158.031" style="fill:none;stroke:black;stroke-width:33.33px;"/>
            </g>
            <g transform="matrix(-0.12,0.207846,-0.207846,-0.12,159.062,-45.0109)">
                <path d="M517.192,66.514L517.192,158.031" style="fill:none;stroke:black;stroke-width:33.33px;"/>
            </g>
        </g>
    </g>
</svg>
